X: 16731
T: Harbwr Corc
R: jig
M: 6/8
K: Gmajor
D|"G" B,2 D G2 A|B3 B2 A|"C" GFG AGE|"G" D3 "C" G2 E|
"G" D3D2 B,|DEF G2 c|"C" B2 B AGF|"G" G3G2 B|
"C" c2 c cBA|"G" B3 B2 A|GFG "C" AGE|"G" D3 "C" G2 E|
"G" D3D2 B,|DEF G2 c|"C" B2 B AGA|"G" G5||

